assets/icons/qvision/filter.svg

<svg xmlns="http://www.w3.org/2000/svg" height="24" viewBox="0 0 24 24" width="24"><path d="M0 0h24v24H0z" fill="none"/><path d="M15.96 10.29l-2.75 3.54-1.96-2.36L8.5 15h11l-3.54-4.71zM3 5H1v16c0 1.1.9 2 2 2h16v-2H3V5zm18-4H7c-1.1 0-2 .9-2 2v14c0 1.1.9 2 2 2h14c1.1 0 2-.9 2-2V3c0-1.1-.9-2-2-2zm0 16H7V3h14v14z"/></svg>

<svg width="24" height="24" viewBox="0 0 24 24" fill="none" xmlns="http://www.w3.org/2000/svg">
<g clip-path="url(#clip0_147_3401)">
<path d="M15.96 10.29L13.21 13.83L11.25 11.47L8.5 15H19.5L15.96 10.29ZM3 5H1V21C1 22.1 1.9 23 3 23H19V21H3V5ZM21 1H7C5.9 1 5 1.9 5 3V17C5 18.1 5.9 19 7 19H21C22.1 19 23 18.1 23 17V3C23 1.9 22.1 1 21 1ZM21 17H7V3H21V17Z" fill="#323232"/>
</g>
<defs>
<clipPath id="clip0_147_3401">
<rect width="24" height="24" fill="white"/>
</clipPath>
</defs>
</svg>
